src/assets/locationIcon.svg

<svg width="49" height="48" viewBox="0 0 49 48" fill="none" xmlns="http://www.w3.org/2000/svg">
<path d="M24.2954 1.62341C22.5739 1.62341 20.8694 1.96248 19.2789 2.62126C17.6885 3.28005 16.2435 4.24564 15.0262 5.4629C13.809 6.68017 12.8435 8.12527 12.1847 9.71569C11.526 11.3061 11.187 13.0107 11.187 14.7322C11.187 24 24.2954 41.6937 24.2954 41.6937C24.2954 41.6937 37.4038 24.9683 37.4038 14.7322C37.4038 13.0107 37.0648 11.3061 36.4061 9.71569C35.7473 8.12527 34.7818 6.68017 33.5645 5.4629C32.3473 4.24564 30.9022 3.28005 29.3118 2.62126C27.7214 1.96248 26.0168 1.62341 24.2954 1.62341ZM24.2954 21.9902C22.86 21.9903 21.4569 21.5647 20.2634 20.7674C19.0699 19.97 18.1397 18.8366 17.5903 17.5106C17.0409 16.1845 16.8971 14.7254 17.1771 13.3176C17.457 11.9098 18.1481 10.6166 19.1629 9.60162C20.1778 8.5866 21.4708 7.89531 22.8786 7.61517C24.2863 7.33503 25.7455 7.47862 27.0717 8.02778C28.3978 8.57695 29.5313 9.50702 30.3289 10.7004C31.1264 11.8938 31.5522 13.2968 31.5523 14.7322C31.5523 16.6568 30.7878 18.5027 29.4268 19.8636C28.0659 21.2245 26.2201 21.9891 24.2954 21.9891V21.9902Z" fill="white"/>
<path d="M24.2954 45.9054C18.1573 45.9054 9.02588 44.7869 9.02588 41.705C9.02588 39.5711 13.2147 38.5177 16.7286 38.009C16.8981 37.9889 17.0688 38.0358 17.2042 38.1398C17.3396 38.2437 17.429 38.3964 17.4534 38.5654C17.4778 38.7343 17.4352 38.9061 17.3347 39.0441C17.2342 39.1821 17.0838 39.2753 16.9155 39.3039C12.1201 39.9975 10.3335 41.1448 10.3335 41.705C10.3335 42.6867 15.2611 44.5974 24.295 44.5974C33.3289 44.5974 38.2566 42.6867 38.2566 41.705C38.2566 41.1818 36.4348 39.8787 30.8042 39.1877C30.6351 39.1629 30.4825 39.073 30.3789 38.9371C30.2753 38.8012 30.2289 38.6302 30.2497 38.4607C30.2705 38.2911 30.3568 38.1363 30.4901 38.0295C30.6235 37.9227 30.7933 37.8723 30.9634 37.8891C34.1772 38.2837 39.5645 39.3035 39.5645 41.705C39.5649 44.7869 30.4335 45.9054 24.2954 45.9054Z" fill="#2196F3"/>
</svg>

<svg width="49" height="48" fill="none" xmlns="http://www.w3.org/2000/svg"><path d="M24.295 1.623a13.109 13.109 0 0 0-13.108 13.11c0 9.267 13.108 26.96 13.108 26.96s13.109-16.725 13.109-26.96a13.11 13.11 0 0 0-13.109-13.11zm0 20.367a7.258 7.258 0 1 1 0-14.513 7.258 7.258 0 0 1 0 14.512v.001z" fill="#fff"/><path d="M24.295 45.905c-6.138 0-15.27-1.118-15.27-4.2 0-2.134 4.19-3.187 7.704-3.696a.654.654 0 0 1 .187 1.295c-4.796.694-6.582 1.84-6.582 2.401 0 .982 4.927 2.892 13.961 2.892s13.962-1.91 13.962-2.892c0-.523-1.822-1.826-7.453-2.517a.654.654 0 0 1 .16-1.299c3.213.395 8.6 1.414 8.6 3.816 0 3.082-9.13 4.2-15.269 4.2z" fill="#2196F3"/></svg>
